X: 2
T: Morgan Rattler
C: Trad
R: Jig
M: 6/8
L: 1/8
K: Dmaj
d |: "D"AGF EFG | FEF D2 d | AGF EFG | "G"B2 A "A"Bcd |
"D"AGF EFG | FEF D2 A | "G"def edc | "A"B2 A Bcd :|
|: "Bm"d2 e fdB | "A"c2 d ecA | "G"d2 e fdB | "G"g2 e "A"fga |
"Bm"d2 e fdB | "A"c2 d ecA | "G"def ecA | "A"B2 A Bcd :|
|: "D"D2 d dcd | "Em"E2 e ede | "D/F#"D2 d dcd | "G"B2 A "A"Bcd |
"D"D2 d dcd | "Em"E2 e efg | "A"agf edc | B2 A Bcd :|
r: 48
Z: B Jam
